X:1
T:Grand Rapids, 77.77 D
T:Grand Rapids, 77.77 D
T:Daniel Brink Towner, 1899
T:Public Domain Courtesy of the Cyber Hymnal™
C:Daniel Brink Towner, 1899
Z:Public Domain
Z:Courtesy of the Cyber Hymnal™
%%score ( 1 2 ) ( 3 4 )
L:1/8
Q:1/4=75
M:2/4
K:D
V:1 treble 
V:2 treble 
V:3 bass 
V:4 bass 
V:1
 [DF]D [DG][DF] | [CA][CA] [CE]2 | [EG][CE] [EG][GB] | [GB][FA] [DF]2 | [FA][DF] [Fd][FA] | %5
 [Ac][GB] [GB]2 | ([FA]/[GB]/) ([Gc]/[Fd]/) [FA][DF] | [CE]>D D2 | %8
 ([CE]/[DF]/) ([EG]/[FA]/) [GB][FA] | [DF][FA] [Fd]2 | ([CE]/[DF]/) ([EG]/[FA]/) [GB][FA] | %11
 [DF][FA] [Fd]2 | [Fd]>[Fc] [Ge][Fd] | [Ac][GB] [GB]2 | ([FA]/[GB]/) ([Gc]/[Fd]/) [FA][DF] | %15
 [CE]>D !fermata!D2 |] %16
V:2
 x D x2 | x4 | x4 | x4 | x4 | x4 | x4 | x3/2 D/ D2 | x4 | x4 | x4 | x4 | x4 | x4 | x4 | %15
 x3/2 D/ D2 |] %16
V:3
 [D,A,][D,F,] [D,B,][D,A,] | [A,,G,][A,,E,] [A,,A,]2 | [A,,A,][A,,A,] [A,,C][A,,C] | %3
 [D,D][D,D] [D,A,]2 | [D,D][D,A,] [D,A,][D,D] | [G,D][G,D] [G,D]2 | DA, [D,D][D,A,] | %7
 [A,,G,]>[D,F,] [D,F,]2 | A,A, [A,C][A,D] | [D,D][D,D] [D,A,]2 | A,A, [A,C][A,D] | %11
 [D,D][D,D] [D,A,]2 | [D,A,]>[D,A,] [D,D][D,D] | [G,D][G,D] [G,D]2 | DA, [D,D][D,A,] | %15
 [A,,G,]>[D,F,] !fermata![D,F,]2 |] %16
V:4
 x4 | x4 | x4 | x4 | x4 | x4 | (D,/G,/) (E,/D,/) x2 | x4 | A,A, x2 | x4 | A,A, x2 | x4 | x4 | x4 | %14
 (D,/G,/) (E,/D,/) x2 | x4 |] %16

